X:1
T:Jesu dulcis memoria - Palestrina
T:James Gibb editions
T:#
%%score [ 1 2 3 4 ]
L:1/8
Q:1/4=108
M:4/4
K:F
V:1 treble nm="Soprano" snm="S"
V:2 treble nm="Alto" snm="A"
V:3 treble-8 nm="Tenor" snm="T"
V:4 bass nm="Bass" snm="B"
V:1
"^Jesu dulcis memoria""^Giovanni Pierluigi da Palestrina\n(1525-1594)" d8 | d8- | d2 d2 e2 e2 | %3
w: Je-|su|* dul- cis me-|
 f6 f2 | d8- |[M:4/4] d4 z2 B2 | _e2 d2 c3 B | A2 A2 G2 d2- | d2 d2 f4 | f2 f2 _e3 e | d8 | %11
w: mo- ri-|a|* dans|ve- ra cor- dis|gau- di- a Je\-|* su dul-|cis me- mo- ri-|a|
 z2 g2 g2 f2 | _e4 d4 | z2 d2 g2 g2 | f2 d2 !courtesy!=e3 e | d4 z4 | z2 g2 g2 ^f2 | g4 z2 g2 | %18
w: dans ve- ra|cor- dis|dans ve- ra|cor- dis gau- di-|a|sed su- per|mel, sed|
 g2 ^f2 g3 =f | _e2 d2 c2 B2- | B2 B2 _e2 e2- | e2 _e2 e3 e | d4- d2 B2 | c2 c2 d2 d2 | _e3 e d4 | %25
w: su- per mel et|om- ni- a e\-|* jus dul- cis|* prae- sen- ti-|a * sed|su- per mel et|om- ni- a|
 z2 g4 ^f2 | g4[Q:1/4=106] _e4 |[Q:1/4=102] z4[Q:1/4=100] (B2[Q:1/4=98] c2) | %28
w: e- jus|dul- cis|prae\- *|
[Q:1/4=95] d6[Q:1/4=92] d2 |[Q:1/4=92] !fermata!d8 |] %30
w: sen- ti-|a.|
V:2
 A8 | =B8- | B2 =B2 c2 c2 | c6 c2 | !courtesy!_B2 F2 B3 A |[M:4/4] G2 F2 G3 G | G4 z2 G2- | %7
w: Je-|su|* dul- cis me-|mo- ri-|a dans ve- ra|cor- dis gau- di-|a Je\-|
 G2 F2 B4- | B4 A2 A2 | B2 B2 c4- | c2 B2 A2 d2 | d2 c2 d4 | G4 z2 B2 | c2 d2 d2 c2 | d3 d (A4 | %15
w: * su dul\-|* cis dul-|cis me- mo\-|* ri- a dans|ve- ra cor-|dis dans|ve- ra cor- dis|gau- di- a|
 B3 c d4- | d4) z4 | z2 d2 d2 c2 | d3 c B2 B2 | c2 A2 G2 (B2- | B2 F2) G2 c2 | c3 c F4- | %22
w: ||sed su- per|mel et om- ni-|a e- jus dul\-|* * cis prae-|sen- ti- a|
 F2 F2 G2 G2 | A2 A2 B3 B | G2 c2 B2 (A2- | AG) (c2 d4- | d4) z2 (G2- | G2 ^F2) G2 G2 | A6 A2 | %29
w: * sed su- per|mel et om- ni-|a e- jus dul\-|* * cis *|* dul\-|* * cis prae-|sen- ti-|
 !fermata!=B8 |] %30
w: a.|
V:3
 ^F8 | G8- | G2 G2 G2 G2 | A6 A2 | F4 z2 F2 |[M:4/4][K:treble-8] B3 A G4- | G2 G2 _E3 E | %7
w: Je-|su|* dul- cis me-|mo- ri-|a dans|ve- ra cor\-|* dis gau- di-|
 D4 z2 G2- | G2 G2 F4 | F2 F2 G4- | G4 A4 | B4 z2 A2 | c2 c2 B2 G2 | A3 A G4 | z2 d2 d2 ^c2 | %15
w: a Je\-|* su dul-|cis me- mo\-|* ri-|a dans|ve- ra cor- dis|gau- di- a|sed su- per|
 d3 c B2 A2 | B4 c2 d2 | G2 (B4 AG | A4) z2 G2 | G2 F2 G4 | G2 (B4 AG | A3) A B4- | B8 | z8 | %24
w: mel et om- ni-|a e- jus|dul- cis * *|* e-|jus dul- cis|prae- sen\- * *|* ti- a|||
 z4 z2 F2 | G2 G2 A2 A2 | B3 B G2 c2 | B2 (A2- AG) G2- | G2 (^F!courtesy!=E) F3 F | !fermata!G8 |] %30
w: sed|su- per mel et|om- ni- a e-|jus dul\- * * cis|* prae\- * sen- ti-|a.|
V:4
 D,8 | G,,8 | G,4 C,2 C,2 | F,6 F,2 | B,,8 |[M:4/4] z2 B,,2 _E,3 D, | C,2 =B,,2 C,3 C, | %7
w: Je-|su|dul- cis me-|mo- ri-|a|dans ve- ra|cor- dis gau- di-|
 D,4 z2 G,,2- | G,,2 G,,2 D,4 | D,2 D,2 C,2 C,2 | G,,2 G,2 G,2 F,2 | _E,4 D,4 | C,4 G,2 G,2 | %13
w: a Je\-|* su dul-|cis me- mo- ri-|a dans ve- ra|cor- dis|dans ve- ra|
 F,2 D,2 _E,3 E, | D,4 z4 | z2 G,2 G,2 ^F,2 | G,3 !courtesy!=F, _E,2 D,2 | C,2 B,,2 E,3 E, | %18
w: cor- dis gau- di-|a|sed su- per|mel et om- ni-|a, et om- ni-|
 D,4 G,,4 | C,2 D,2 _E,4- | E,2 D,2 C,4- | C,2 C,2 B,,4- | B,,4 z4 | z4 B,,4 | C,2 C,2 D,2 D,2 | %25
w: a e-|jus dul- cis|* prae- sen\-|* ti- a||sed|su- per mel et|
 _E,3 E, D,4 | G,4 C,4 | D,4 _E,2 E,2 | D,6 D,2 | G,,8 |] %30
w: om- ni- a|e- jus|dul- cis prae-|sen- ti-|a.|

